X:105
T:Jolly Mortals, The
M:9/8
L:1/8
B:Thompson's Compleat Collection of 200 Favourite Country Dances, vol. 2 (London, 1765)
Z:Transcribed and edited by Flynn Titford-Mock, 2007
Z:abc's:AK/Fiddler's Companion
K:A
Ace ecA "tr"f2B | Ace ecA "tr"B2E | Ace ecA agf | {a}gfe | Bc^d {d}e3 :|
|: egb bge dcB | cea aed "tr"cBA | Bcd cea dcB | {d}cBA EFG A3 :|

